src/ui/Svg/optimized/storage.svg

<?xml version="1.0" standalone="no"?>
<!DOCTYPE svg PUBLIC "-//W3C//DTD SVG 1.1//EN" "http://www.w3.org/Graphics/SVG/1.1/DTD/svg11.dtd">
<svg class="icon" version="1.1" viewBox="0 0 1121 1024" fill="currentColor" aria-hidden="true">
  <path d="M77.71428594 613.30285719h960a45.71428594 45.71428594 0 0 1 45.71428594 45.71428593V946.28571406a45.71428594 45.71428594 0 0 1-45.71428594 45.71428594H77.71428594a45.71428594 45.71428594 0 0 1-45.71428594-45.71428594v-287.26857093a45.71428594 45.71428594 0 0 1 45.71428594-45.71428594zM32 77.71428594v120.91428562a45.71428594 45.71428594 0 0 0 45.71428594 45.71428594h960a45.71428594 45.71428594 0 0 0 45.71428594-45.71428594V77.71428594a45.71428594 45.71428594 0 0 0-45.71428594-45.71428594H77.71428594a45.71428594 45.71428594 0 0 0-45.71428594 45.71428594z m189.71428594 119.63428593c-33.64571437 0-60.93714281-26.51428594-60.93714282-59.20000031 0-32.64 27.29142844-59.15428594 60.93714282-59.15428594s60.93714281 26.51428594 60.93714281 59.15428594c0 32.68571437-27.29142844 59.20000031-60.93714281 59.20000031zM77.71428594 533.48571406h960a45.71428594 45.71428594 0 0 0 45.71428594-45.71428593V366.8571425a45.71428594 45.71428594 0 0 0-45.71428594-45.714285H77.71428594a45.71428594 45.71428594 0 0 0-45.71428594 45.714285V487.77142812a45.71428594 45.71428594 0 0 0 45.71428594 45.71428594z m83.06285718-102.12571406c0-32.68571437 27.29142844-59.20000031 60.93714282-59.20000031s60.93714281 26.51428594 60.93714281 59.20000031c0 32.64-27.29142844 59.15428594-60.93714281 59.15428594s-60.93714281-26.51428594-60.93714282-59.15428594z"/>
</svg>

<svg xmlns="http://www.w3.org/2000/svg" class="icon" viewBox="0 0 1121 1024" fill="currentColor" aria-hidden="true">
  <path d="M77.714 613.303h960a45.714 45.714 0 0145.715 45.714v287.269A45.714 45.714 0 011037.714 992h-960A45.714 45.714 0 0132 946.286V659.017a45.714 45.714 0 0145.714-45.714zM32 77.714V198.63a45.714 45.714 0 0045.714 45.714h960a45.714 45.714 0 0045.715-45.714V77.714A45.714 45.714 0 001037.714 32h-960A45.714 45.714 0 0032 77.714zM221.714 197.35c-33.645 0-60.937-26.515-60.937-59.2 0-32.64 27.292-59.155 60.937-59.155s60.937 26.515 60.937 59.155c0 32.685-27.291 59.2-60.937 59.2zm-144 336.137h960a45.714 45.714 0 0045.715-45.715V366.857a45.714 45.714 0 00-45.715-45.714h-960A45.714 45.714 0 0032 366.857v120.914a45.714 45.714 0 0045.714 45.715zm83.063-102.126c0-32.686 27.292-59.2 60.937-59.2s60.937 26.514 60.937 59.2c0 32.64-27.291 59.154-60.937 59.154S160.777 464 160.777 431.36z"/>
</svg>
